icons/shopping-bag-line.svg

<svg viewBox="0 0 24 24" fill="currentColor" xmlns="http://www.w3.org/2000/svg">
    <path d="M7.00488 7.99966V5.99966C7.00488 3.23824 9.24346 0.999664 12.0049 0.999664C14.7663 0.999664 17.0049 3.23824 17.0049 5.99966V7.99966H20.0049C20.5572 7.99966 21.0049 8.44738 21.0049 8.99966V20.9997C21.0049 21.5519 20.5572 21.9997 20.0049 21.9997H4.00488C3.4526 21.9997 3.00488 21.5519 3.00488 20.9997V8.99966C3.00488 8.44738 3.4526 7.99966 4.00488 7.99966H7.00488ZM7.00488 9.99966H5.00488V19.9997H19.0049V9.99966H17.0049V11.9997H15.0049V9.99966H9.00488V11.9997H7.00488V9.99966ZM9.00488 7.99966H15.0049V5.99966C15.0049 4.34281 13.6617 2.99966 12.0049 2.99966C10.348 2.99966 9.00488 4.34281 9.00488 5.99966V7.99966Z"/>
</svg>

<svg xmlns="http://www.w3.org/2000/svg" viewBox="0 0 24 24">
    <g>
        <path fill="none" d="M0 0h24v24H0z"/>
        <path d="M7 8V6a5 5 0 1 1 10 0v2h3a1 1 0 0 1 1 1v12a1 1 0 0 1-1 1H4a1 1 0 0 1-1-1V9a1 1 0 0 1 1-1h3zm0 2H5v10h14V10h-2v2h-2v-2H9v2H7v-2zm2-2h6V6a3 3 0 0 0-6 0v2z"/>
    </g>
</svg>
